!!!COM: Frescobaldi, Girolamo
!!!CDT: 1583///-1643
!!!ONM: No. 20
!!!OTL: No. 20: Canzon Terza &agrave; 2 Canti
!!!OPR: Canzoni da sonare a una, due, tre et quattro, libro primo
!!!PPP: Venezia
!!!PDT: 1634
!!!URL: http://icking-music-archive.org/ByComposer/Frescobaldi.html
!!!ONB: Andrea Friggi, ed.
**kern	**kern	**kern
!Basso ad Organo	!Canto Secondo	!Canto Primo
*staff3	*staff2	*staff1
*clefC1	*clefG2	*clefG2
*Icello	*Ivioln	*Ivioln
*k[b-]	*k[b-]	*k[b-]
*met(C)	*met(C)	*met(C)
*M4/4	*M4/4	*M4/4
*MM120	*MM120	*MM120
=1-	=1-	=1-
4dd\	4dd\	1r
2g\	8g\L	.
.	8dd\J	.
.	8gg\L	.
.	16ff\L	.
.	16ee\JJ	.
4b-\	8dd\L	.
.	8ee\J	.
=2	=2	=2
4d/	8ff\L	1r
.	8dd\	.
4e-/	8b-\	.
.	8cc\J	.
4c/	2a/	.
4d/	.	.
=3	=3	=3
*clefF4	*	*
2.G\	2b-\	4dd\
.	.	8g\L
.	.	8dd\J
.	2r	8gg\L
.	.	16ff\L
.	.	16ee\JJ
4B-\	.	8.dd\L
.	.	16ee\Jk
=4	=4	=4
4D\	4r	8ff\L
.	.	8dd\
4E-\	4gg\	8b-\
.	.	8cc\J
4C/	4gg\	2a/
4D\	4ff#\	.
=5	=5	=5
4GG/	8gg\L	2b-\
.	8g\	.
4G\	8b-\	.
.	8cc\J	.
4G\	8dd\L	2r
.	8b-\	.
8F\L	8dd\	.
8E\J	8ee\J	.
=6	=6	=6
2D\	2ff\	4r
.	.	4dd\
2AA/	2ee\	4dd\
.	.	4cc#\
=7	=7	=7
4.D\	2dd\	8dd\L
.	.	16dd\L
.	.	16ee\JJ
.	.	8ff\L
8E\	.	8gg\J
4F\	2r	8aa\L
.	.	8dd\
4D\	.	8ee\
.	.	8ff\J
=8	=8	=8
2A\	2r	2ee\
2B-\	4dd\	2dd\
.	8g\L	.
.	8dd\J	.
=9	=9	=9
4G\	8gg\L	1r
.	16ff\L	.
.	16ee\JJ	.
8F\L	8dd\L	.
8E\J	8ee\J	.
4D\	8ff\L	.
.	8dd\	.
4G\	8b-\	.
.	8cc\J	.
=10	=10	=10
4G\	2a/	2r
4F#\	.	.
2G\	2g/	4r
.	.	4gg\
=11	=11	=11
2D\	1r	4gg\
.	.	4ff#\
4E-\	.	8gg\L
.	.	8g\
8D/L	.	8b-\
8C/J	.	8cc\J
=12	=12	=12
4.BB-/	2r	8dd\L
.	.	8dd\
.	.	8ff\
8BB-/	.	8gg\J
4FF#/	4r	4aa\
4GG/	4dd\	8gg\L
.	.	8ff\J
=13	=13	=13
2AA/	4dd\	2ee\
.	4cc#\	.
[2BB-/	8dd\L	2dd\
.	8b-\	.
.	8dd\	.
.	8ee\J	.
=14	=14	=14
4BB-/]	8ff\L	4r
.	8b-\	.
4BB-/	8dd\	4b-\
.	8ee\J	.
2F\	4cc\	4b-\
.	8ff\L	4a/
.	8ee\J	.
=15	=15	=15
4G\	2dd\	8b-\L
.	.	8dd\
8F\L	.	8ff\
8E\J	.	8gg\J
4F\	2r	8aa\L
.	.	8dd\
4D\	.	8ff\
.	.	8ff\J
=16	=16	=16
4C#/	1r	4ee\
4D\	.	2dd\
2AA/	.	.
.	.	4cc#\
=17	=17	=17
2BB-/	2r	4dd\
.	.	8g\L
.	.	8dd\J
4GG/	4g/	4gg\
4G\	8d/L	8ff\L
.	8g/J	8ee\J
=18	=18	=18
2D\	8dd\L	2ff\
.	16cc\L	.
.	16b-\JJ	.
.	8a/L	.
.	8b-/J	.
4A\	8cc\L	2r
.	8dd\	.
4G\	8b-\	.
.	8cc\J	.
=19	=19	=19
2F#\	8.a\L	2r
.	16dd\Jk	.
.	8cc\L	.
.	8dd\J	.
[2G\	2b-\	4dd\
.	.	8g\L
.	.	8dd\J
=20	=20	=20
4G\]	2r	8gg\L
.	.	16ff\L
.	.	16ee\JJ
8F\L	.	8dd\L
8E\J	.	8ee\J
4D\	4r	8ff\L
.	.	8gg\
4C/	4cc\	8ee-\
.	.	8ff\J
=21	=21	=21
2GG/	4cc\	2dd\
.	4bn\	.
4E-\	8cc/L	4cc\
.	16g/L	.
.	16a/JJ	.
8D/L	8b\L	8dd\L
8C/J	8cc\J	8ee\J
=22	=22	=22
4BB-/	4dd\	4ff\
4C/	8cc\L	2ee-\
.	8b-\J	.
4D\	4a/	.
4BB-/	4b-\	4dd\
=23	=23	=23
1FF	4cc\	4cc\
.	8dd\L	2b-\
.	8ee-\J	.
.	2cc\	.
.	.	4a/
=24	=24	=24
1BB-	1dd	1b-
=25:|!	=25:|!	=25:|!
1B-	1r	2r
.	.	[2dd\
=26	=26	=26
2G\	1r	4dd\]
.	.	4ee\
2D\	.	2ff#\
=27	=27	=27
2BBn/	1r	[4gg\
.	.	16gg\LL]
.	.	16ff\
.	.	16ee\
.	.	16dd\JJ
4C/	.	4ee-\
[4C#/	.	[4een\
=28	=28	=28
4C#/]	1r	4ee\]
4D\	.	8ff\L
.	.	8ee\J
2F#\	.	8dd\L
.	.	8cc\
.	.	8dd\
.	.	8a\J
=29	=29	=29
4G\	1r	4b-\
2GG/	.	2bn\
4EE/	.	16cc/LL
.	.	16b/
.	.	16a/
.	.	16g/JJ
=30	=30	=30
2FF/	1r	4a/
.	.	2aa\
2GG/	.	.
.	.	16gg\LL
.	.	16ff\
.	.	16ee\
.	.	16dd\JJ
=31	=31	=31
1AA	1r	4cc#\
.	.	4dd\
.	.	2ee\
=32	=32	=32
*	*	*MM120
4D\	16r	2dd\
.	16dd\LL	.
.	16cc\	.
.	16dd\JJ	.
4G\	8b-/L	.
.	8g/J	.
4E\	4gg\	16r
.	.	16cc\LL
.	.	16b-\
.	.	16cc\JJ
4F\	4ff\	8a/L
.	.	8f/J
=33	=33	=33
2D\	16r	2ff\
.	16aa\LL	.
.	16gg\	.
.	16aa\JJ	.
.	8ff\L	.
.	8dd\J	.
2C/	16r	16r
.	16gg\LL	16ee-\LL
.	16ff\	16dd\
.	16gg\JJ	16ee-\JJ
.	8ee-\L	8cc\L
.	8dd\J	8b-\J
=34	=34	=34
2F\	8cc\L	16a\LL
.	.	16aa\
.	8b-\J	16gg\
.	.	16aa\JJ
.	4a/	8ff\L
.	.	8ee\J
4G\	4bn\	16dd\LL
.	.	16gg\
.	.	16ff\
.	.	16gg\JJ
4C/	[4cc\	8ee\L
.	.	8ff\J
=35	=35	=35
2G\	4cc\]	2dd\
.	4bn\	.
4C/	16r	2cc\
.	16cc\LL	.
.	16b-\	.
.	16cc\JJ	.
[4FF/	8a/L	.
.	8f/J	.
=36	=36	=36
8FF/L]	8ff\L	16r
.	.	16dd\LL
8FF/J	8ee\J	16cc\
.	.	16dd\JJ
4GG/	4dd\	8b-/L
.	.	8g/J
4AA/	16r	4cc\
.	16aa\LL	.
.	16gg\	.
.	16aa\JJ	.
4AA/	4ff\	16r
.	.	16a/LL
.	.	16g/
.	.	16a/JJ
=37	=37	=37
2.BB-/	16r	4f/
.	16dd\LL	.
.	16cc\	.
.	16dd\JJ	.
.	4b-\	16r
.	.	16ff\LL
.	.	16ee\
.	.	16ff\JJ
.	16r	4dd\
.	16b-/LL	.
.	16a/	.
.	16b-/JJ	.
4C/	4g/	16r
.	.	16ee\LL
.	.	16dd\
.	.	16ee\JJ
=38	=38	=38
4AA/	16r	4cc\
.	16a/LL	.
.	16g/	.
.	16a/JJ	.
4BB-/	4f/	16r
.	.	16dd\LL
.	.	16cc\
.	.	16dd\JJ
4GG/	16r	4b-\
.	16dd\LL	.
.	16cc\	.
.	16dd\JJ	.
[4C/	[4ee-\	16r
.	.	16g/LL
.	.	16a/
.	.	16b-/JJ
=39	=39	=39
4C/]	16ee-\LL]	[4cc\
.	16dd\	.
.	16ee-\	.
.	16ff\JJ	.
4E-\	2gg\	16cc\LL]
.	.	16a\
.	.	16b-\
.	.	16cc\JJ
2D\	.	2dd\
.	4ff#\	.
=40	=40	=40
1GG	1gg	1bn
=41	=41	=41
[1C	2r	1r
.	[2cc\	.
=42	=42	=42
2C/]	4cc\]	1r
.	4cc\	.
2BBn/	2dd\	.
=43	=43	=43
2C/	2ee-\	1r
2G\	2bn\	.
=44	=44	=44
2F\	2.cc\	1r
2E\	.	.
.	4cc#\	.
=45	=45	=45
2D\	2dd\	1r
2C#/	[2ee\	.
=46	=46	=46
1D	4ee\]	1r
.	4dd\	.
.	[2dd\	.
=47	=47	=47
1E-	2dd\]	1r
.	2cc\	.
=48	=48	=48
1D	2bn\	1r
.	[2b-\	.
=49	=49	=49
1C	2b-\]	1r
.	4a/	.
.	4g/	.
=50	=50	=50
2FF/	2a-/	1r
2EE/	4g/	.
.	[4cc\	.
=51	=51	=51
2.FF/	4cc\]	1r
.	8b-/L	.
.	8an/J	.
.	[2dd\	.
4GG/	.	.
=52	=52	=52
1AA	2dd\]	1r
.	2cc#\	.
=53	=53	=53
*M6/4	*M6/4	*M6/4
*	*	*MM120
2.D\	2.dd\	4dd\
.	.	4cc\
.	.	4dd\
2.G\	2.r	4bn\
.	.	4a/
.	.	4b\
=54	=54	=54
4C/	4gg\	2.cc\
4D\	4ff\	.
4E\	4gg\	.
2.F\	4cc\	2.r
.	4b-\	.
.	4cc\	.
=55	=55	=55
4BB-/	2.dd\	4ff\
4C/	.	4ee\
4D\	.	4ff\
2.E-\	2.r	4gg\
.	.	4ee-\
.	.	4dd\
=56	=56	=56
2.F\	4r	4cc\
.	2aa\	2ff\
4C/	2gg\	4ee\
2D\	.	2dd\
.	4ff\	.
=57	=57	=57
2.AA/	2.ee\	4cc#\
.	.	4bn\
.	.	4cc#\
2D\	4ff#\	2.dd\
.	4ee\	.
4D\	4ff#\	.
=58	=58	=58
2.GG/	2.gg\	4r
.	.	4.b-\
.	.	8a/
2C/	2.r	4g/
.	.	4.cc\
4C/	.	.
.	.	8b-\
=59	=59	=59
2.FF/	4r	2.a/
.	4.ff\	.
.	8ee\	.
2.BB-/	4dd\	2.r
.	4.gg\	.
.	8ff\	.
=60	=60	=60
2C/	2.ee\	4r
.	.	4.cc\
4C/	.	.
.	.	8b-\
2.F\	2.r	4a/
.	.	4.dd\
.	.	8cc\
=61	=61	=61
2G\	4r	2.b-\
.	2gg\	.
4GG/	.	.
2D\	2ff\	4r
.	.	4.aa\
4C#/	4ee\	.
.	.	8gg\
=62	=62	=62
4D\	2dd\	2ff\
2BB-/	.	.
.	4ee-\	4gg\
2.C/	4cc\	4ee-\
.	4.a/	4.cc\
.	8g/	8b-\
=63	=63	=63
2D\	4f/	4a/
.	2b-\	2dd\
4BB-/	.	.
2.C/	2a/	2cc\
.	4g/	4b-\
=64	=64	=64
*met(C)	*met(C)	*met(C)
*M4/4	*M4/4	*M4/4
2D\	2f#/	2a/
2GG/	4r	2r
.	4dd\	.
=65	=65	=65
1C	[2ee-\	2r
.	8ee-\L]	[2gg\
.	8dd\	.
.	8cc\	.
.	8b-\J	.
=66	=66	=66
1D	1a	2gg\]
.	.	[2ff\
=67	=67	=67
2.E-\	1g	2ff\]
.	.	2ee-\
4F\	.	.
=68	=68	=68
2G\	1r	2dd\
2C/	.	2cc\
=69	=69	=69
*	*	*MM120
4G\	2r	8r
.	.	8dd\
4E\	.	4gg\
4C/	8r	8ee\L
.	8g/	8cc\J
4C/	[4cc\	8.ee-\L
.	.	16dd\Jk
=70	=70	=70
2F\	8cc\L]	4.cc\
.	8b-\J	.
.	4.a/	.
.	.	8f/
2D\	.	4.ff\
.	8aa\	.
.	[4ff\	.
.	.	8ee\
=71	=71	=71
4BB-/	8ff\L]	4.dd\
.	8dd\J	.
4GG/	4.gg\	.
.	.	8b-\
[2C/	.	4.ee-\
.	8ff\	.
.	[4ee-\	.
.	.	8g/
=72	=72	=72
4C/]	8ee-\L]	4.cc\
.	8dd\J	.
4FF/	4.cc\	.
.	.	8b-\
2F\	.	4.a/
.	8f/	.
.	[4ff\	.
.	.	8f/
=73	=73	=73
2D\	8ff\L]	4.b-\
.	16ee\L	.
.	16ff\JJ	.
.	4.dd\	.
.	.	16a/LL
.	.	16b-/JJ
2E-\	.	4.g/
.	16cc\LL	.
.	16dd\JJ	.
.	8b-/L	.
.	8g/J	8gg\
=74	=74	=74
4C/	4.cc\	8ee\L
.	.	16dd\L
.	.	16ee\JJ
4AA/	.	4.ff\
.	16b-\LL	.
.	16cc\JJ	.
4BB-/	4.dd\	.
.	.	16ee\LL
.	.	16ff\JJ
4GG/	.	[4gg\
.	16cc\LL	.
.	16dd\JJ	.
=75	=75	=75
4C/	4.ee\	8gg\L]
.	.	16ff\L
.	.	16gg\JJ
4AA/	.	8aa\L
.	16dd\LL	8gg\J
.	16ee\JJ	.
2D\	8ff\L	4.ff\
.	8a\	.
.	8b-\	.
.	8cc\J	8a/
=76	=76	=76
2BB-/	8dd\L	8b-\L
.	8ee\	8cc\J
.	8ff\	8dd\L
.	8gg\J	16ee\L
.	.	16dd\JJ
[2C/	8ee-\L	8cc\L
.	16dd\L	8gg\J
.	16ee-\JJ	.
.	8cc\L	8ee-\L
.	16b-\L	16dd\L
.	16cc\JJ	16ee-\JJ
=77	=77	=77
2C/]	8a/L	8cc\L
.	8g/	16b-\L
.	.	16cc\JJ
.	8cc/	8a/L
.	8b-/J	8g/J
[2D\	4.a/	8f#/L
.	.	8dd/
.	.	8a/
.	8dd\	8b-/J
=78	=78	=78
2D\]	8a/L	8f#/L
.	8b-/J	8g/J
.	4f#/	8a/L
.	.	16b-/L
.	.	16a/JJ
4E-\	4r	2g/
4BBn/	4dd\	.
=79	=79	=79
1C	2ee-\	4r
.	.	2gg\
.	2een\	.
.	.	4aa\
=80	=80	=80
[1D	4ff\	2a/
.	4ff#\	.
.	[2gg\	4b-\
.	.	8bn\L
.	.	8cc\J
=81	=81	=81
1D]	4gg\]	2.dd\
.	8ff\L	.
.	8ee\J	.
.	4dd\	.
.	4cc\	4ee\
=82	=82	=82
1D	4bn\	4ff#\
.	4b-\	2gg\
.	2a/	.
.	.	4ff#\
=83	=83	=83
0GG	0bn	0gg
==	==	==
*-	*-	*-
!!!ENC: Craig Stuart Sapp
!!!END: 2004/12/14/
